images/lists.svg

<svg height="252.44" viewBox="0 0 299.135 336.587" width="224.351" xmlns="http://www.w3.org/2000/svg"><path d="m35.962 276.853c11.187 19.155 5.474 14.411 28.991 18.503 23.516 4.092 82.183 4.036 106.744-.999 24.56-5.035 29.735-8.1 37.925-21.773 8.191-13.672 4.958-28.055 3.48-41.858s-6.248-26.476-7.256-40.436c-1.007-13.961 2.766-27.073-.405-42.888-3.172-15.814-5.077-35.877-7.563-52.093-2.487-16.217 1.59-30.545-2.859-45.342-4.45-14.797-3.585-29.746-27.608-36.738-24.024-6.992-71.808 1.831-96.806.401s-40.625-3.623-53.441 5.231c-12.817 8.854-3.493 18.921-1.876 32.589 1.616 13.669 2.269 20.554 3.318 39.361s-1.097 57.53 4.128 72.71c10.263 28.291-5.863 77.063 13.228 113.332z" fill="#fcf6d5"/><path d="m35.962 276.853c11.187 19.155 5.474 14.411 28.991 18.503 23.516 4.092 82.183 4.036 106.744-.999 24.56-5.035 29.735-8.1 37.925-21.773 8.191-13.672 4.958-28.055 3.48-41.858s-6.248-26.476-7.256-40.436c-1.007-13.961 2.766-27.073-.405-42.888-3.172-15.814-5.077-35.877-7.563-52.093-2.487-16.217 1.59-30.545-2.859-45.342-4.45-14.797-3.585-29.746-27.608-36.738-24.024-6.992-71.808 1.831-96.806.401s-40.625-3.623-53.441 5.231c-12.817 8.854-3.493 18.921-1.876 32.589 1.616 13.669 2.269 20.554 3.318 39.361s-1.097 57.53 4.128 72.71c10.263 28.291-5.863 77.063 13.228 113.332z" fill="none" stroke="#000" stroke-width="3"/><path d="m38.756 66.76c.083-3.139.066-9.676 3.571-11.429 3.044-1.521 2.25 15.441 7.857 13.572 2.983-.994 4.721-5.383 7.857-6.429 1.781-.594 24.495-1.121 25.715-.714 3.453 1.151 7.09 5.732 11.428 4.286 6.724-2.242 19.032-3.318 24.286-8.572.595-.595.119-2.262.714-2.857 1.019-1.019 7.979 2.204 9.286 2.857 3.355 1.678 38.908.714 45.714.714" fill="none" stroke="#000" stroke-width="3"/><path d="m33.041 104.617c.953-.238 2.619-1.667 2.858-.714.238.952-3.168 1.645-2.858.714.483-1.446 2.494-1.779 3.572-2.857 1.378-1.378 1.158-4.508 3.571-5.714 7.392-3.696-.687 5.026 4.286 10 .982.981 2.59-1.162 3.571-2.143 5.396-5.396 8.69 3.155 10.715 2.143 4.018-2.009 7.976-4.366 12.143-7.143.961-.641 3.058-2.545 3.571-3.572.241-.481-.181-6.428 0-6.428.714 0-.226 1.465 0 2.143.61 1.829 1.759 6.3 4.286 7.142 3.397 1.133 9.852-4.359 12.857-2.857 4.457 2.229 9.187 4.237 13.571 6.429 2.048 1.024 5.988-2.721 8.572-1.429 1.261.631 5.15 1.855 6.428 1.429 2.33-.777 10.951-5.239 12.857-4.286 2.687 1.343 2.825 4.269 5.715 5.714 3.56 1.781 12.153-2.148 15-3.571 4.472-2.236 10.332 4.668 15 0" fill="none" stroke="#000" stroke-width="3"/><path d="m41.613 148.188c2.826-2.561 3.212-5 7.143-5 .237 0 3.331 3.095 4.285 3.572.452.226 3.976-2.345 5-2.857 2.154-1.077 5.872 2.36 7.858 2.857 3.138.784 7.758-1.404 10.714-2.143 2.92-.73 5.421 1.429 7.857 1.429 4.711 0 14.391-5.41 17.857-7.143 1.947-.974.569-4.286 1.429-4.286 4.769 0 9.542 6.557 13.571 8.571 1.998.999 12.008.715 15 .715h28.572c3.76 0 5.249 2.392 7.142 4.285.528.528 9.615.879 5-1.428" fill="none" stroke="#000" stroke-width="3"/><path d="m45.184 192.474c2.841-4.87 4.473-10.901 8.572-15 1.763-1.763 3.393 2.441 6.428 1.429 4.125-1.375 7.778-4.603 11.429-6.429 2.009-1.005 10.584 5.671 12.857 6.429 4.589 1.529 10.751-4.036 16.429-2.143 4.835 1.612 8.419 6.71 12.142 8.571 3.045 1.522 11.846-1.428 15.715-1.428 9.541 0 19-3.905 28.571-.715 3.744 1.248 11.106-1.981 8.572-.714" fill="none" stroke="#000" stroke-width="3"/><path d="m39.47 228.188c.557-3.877.835-6.131 4.286-7.857 2.594-1.297 3.915 5.529 5.714 6.429 1.714.857 6.132-3.572 7.857-3.572 1.602 0 2.519 3.403 4.286 4.286.291.146 27.164-4.517 30-3.571 4.522 1.507 9.41 6.149 15 4.285 15.346-5.115 24.971-14.057 41.428-8.571 6.486 2.162 18.894-2.926 20.715.714" fill="none" stroke="#000" stroke-width="3"/><path d="m65.163 241.198c1.019 13.607 7.611 25.66 9.951 38.964 4.042 11.107 8.438 24.476 19.846 29.844 21.934 4.379 44.001-2.794 65.919-3.272 13.119.366 26.203-2.451 39.353-2.94 12.534-2.262 27.78-.454 37.774-9.614 4.274-9.626 3.11-22.302 2.789-33.201-1.593-17.611-1.977-35.825-9.075-52.305-4.171-19.469-1.639-39.569-1.141-59.223-2.01-11.86-.07-24.043-4.327-35.842-3.682-12.287-3.788-24.089-6.536-36.055-6.785-18.609-15.755-39.185-34.269-48.703-12.299-6.613-23.932-.511-36.505.052-13.924-.123-27.632 3.944-41.456 1.759-18.141 3.407-36.769 5.139-54.378 10.848-4.753 9.013 1.308 20.989 2.653 30.846 3.483 11.628 4.006 23.217 4.637 35.583 1.015 11.794 1.246 23.443.645 35.308-.434 32.682.225 65.47 4.12 97.951z" fill="#fcf6d5"/><g fill="none" stroke="#000" stroke-width="3"><path d="m65.163 241.198c1.019 13.607 7.611 25.66 9.951 38.964 4.042 11.107 8.438 24.476 19.846 29.844 21.934 4.379 44.001-2.794 65.919-3.272 13.119.366 26.203-2.451 39.353-2.94 12.534-2.262 27.78-.454 37.774-9.614 4.274-9.626 3.11-22.302 2.789-33.201-1.593-17.611-1.977-35.825-9.075-52.305-4.171-19.469-1.639-39.569-1.141-59.223-2.01-11.86-.07-24.043-4.327-35.842-3.682-12.287-3.788-24.089-6.536-36.055-6.785-18.609-15.755-39.185-34.269-48.703-12.299-6.613-23.932-.511-36.505.052-13.924-.123-27.632 3.944-41.456 1.759-18.141 3.407-36.769 5.139-54.378 10.848-4.753 9.013 1.308 20.989 2.653 30.846 3.483 11.628 4.006 23.217 4.637 35.583 1.015 11.794 1.246 23.443.645 35.308-.434 32.682.225 65.47 4.12 97.951z"/><path d="m76.613 68.903c12.869-3.385.714 8.259.714 5.714 0-.753 1.806-1.388 2.143-.714"/><path d="m90.184 74.617c.953-.476 1.905-.952 2.857-1.429.239-.238.414-.563.715-.714 3.607-1.803 8.1 2.857 10.714 2.857 2.734 0 7.305-4.204 10-2.857 1.926.963 2.772 3.572 5 3.572 10.621 0 21.847-2.941 32.143-5 4.811-.963 8.69 1.22 13.571 0"/><path d="m79.47 103.188c1.894 6.497 2.039.663 5 2.143 3.227 1.614 2.682 9.731 9.286 6.429"/><path d="m100.899 108.188c2.897 1.231 5.615-3.571 7.857-3.571 2.393 0 1.498 4.739 5 3.571 18.386-6.128 50.237-5.714 66.428-5.714"/><path d="m83.041 139.617c2.433-1.309 2.422-4.286 10.715-4.286"/><path d="m123.041 134.617c4.424.404 6.018 1.732 7.858 3.571.38.38 9.737-4.285 11.428-4.285 10.809 0 39.45 2.06 47.857-2.143"/><path d="m87.327 171.76c4.843-2.124 10.986-7.143 16.429-7.143 3.807 0 5.672 5.368 10 4.286 4.574-1.144 21.647-7.034 25.714-5 8.236 4.118 26.055 3.696 35 .714 5.543-1.848 11.423 3.574 17.143.714"/><path d="m83.041 192.474c-.381-2.761 9.286-1.527 9.286 0 0 4.172-6.088 1.088-5.714.714.733-.733 4.286.265 4.286 1.429 0 .523-4.286.977-4.286.714 0-4.952 4.765 9.051 0 4.286-.168-.168 0-.476 0-.714"/><path d="m109.47 195.331c4.137-.913 7.973-2.558 11.429-4.285.899-.45 7.45 3.945 10.714 2.857 9.304-3.102 14.222-2.164 22.857.714.039.013 24.44-4.337 26.429-5 7.475-2.492 19.141 2.929 25 0"/><path d="m80.899 230.331c4.37 2.472 9.558-2.279 13.571-4.285 2.881-1.441 5.812 3.725 9.286 2.857 3.508-.877 6.574-3.43 10-4.286 3.665-.916 5.553 3.79 9.285 2.857 15.946-3.986 31.968-3.885 47.858-7.857 2.496-.624 6.983 1.375 9.285 2.143 6.699 2.233 15.199-.365 21.429-2.857"/></g><path d="m91.282 111.526c-5.15 27.536-8.717 56.258-1.89 83.831-.363 12.475 4.608 24.235 3.837 36.735 1.461 11.155.119 22.336 2.975 33.199 3.02 17.204-2.349 36.098 6.41 52.069 9.886 10.166 25.723 8.628 38.828 8.663 15.256-.005 30.179-4.873 45.41-3.301 28.927-7.518 60.8 2.364 88.201-11.806 15.607-7.807 15.743-29.031 10.429-43.408-6.081-14.603-10.271-30.032-9.577-45.994.045-14.852-4.514-29.422-2.306-44.323 2.287-18.412-2.57-36.544-3.678-54.855-.962-15.245-6.093-29.629-12.322-43.418-1.714-14.182-7.938-29.657-24.231-31.398-26.27-5.826-53.367-2.373-80.031-3.376-18.88.301-37.91-.459-56.654 2.114-11.602 7.155-10.741 22.013-8.922 33.825 1.036 10.492 1.891 21.023 3.521 31.443z" fill="#fcf6d5"/><path d="m91.282 111.526c-5.15 27.536-8.717 56.258-1.89 83.831-.363 12.475 4.608 24.235 3.837 36.735 1.461 11.155.119 22.336 2.975 33.199 3.02 17.204-2.349 36.098 6.41 52.069 9.886 10.166 25.723 8.628 38.828 8.663 15.256-.005 30.179-4.873 45.41-3.301 28.927-7.518 60.8 2.364 88.201-11.806 15.607-7.807 15.743-29.031 10.429-43.408-6.081-14.603-10.271-30.032-9.577-45.994.045-14.852-4.514-29.422-2.306-44.323 2.287-18.412-2.57-36.544-3.678-54.855-.962-15.245-6.093-29.629-12.322-43.418-1.714-14.182-7.938-29.657-24.231-31.398-26.27-5.826-53.367-2.373-80.031-3.376-18.88.301-37.91-.459-56.654 2.114-11.602 7.155-10.741 22.013-8.922 33.825 1.036 10.492 1.891 21.023 3.521 31.443z" fill="none" stroke="#000" stroke-width="3"/><path d="m116.613 78.188c-1.586 1.921-1.623 3.635-2.143 5.715-2.379 9.516 1.8.869 5.714 1.428 3.183.455 6.575 3.287 8.572 4.286" fill="none" stroke="#000" stroke-width="3"/><path d="m164.47 86.046c2.058.493 8.891-3.253 10.714-1.429.385.385-.131 2.857 1.429 2.857 2.637 0 16.419-5.009 19.286-2.143 3.332 3.332 23.077 3.572 29.285 3.572" fill="none" stroke="#000" stroke-width="3"/><path d="m123.041 119.617c8.509-8.186 8.13 0 17.143 0 1.279 0 5.18-2.947 6.429-3.571 3.345-1.673 22.84-3.755 26.428-2.858 8.146 2.037 48.022 5.99 54.286 2.858" fill="none" stroke="#000" stroke-width="3"/><path d="m119.47 153.188c11.483-13.31 16.693-2.945 20.714-4.285 3.109-1.036 11.904-5.318 15-4.286 2.713.904 4.805 3.468 7.857 2.857 16.036-3.207 31.609-2.857 47.143-2.857 3.772 0 4.935 1.363 6.429 2.857.936.936 19.841-1.349 24.286-3.571" fill="none" stroke="#000" stroke-width="3"/><path d="m116.613 191.046c12.086-15.528 14.409-3.137 20-5 3.286-1.096 8.236-5 11.428-5 1.993 0 1.78 5 4.286 5 2.025 0 4.012-1.292 5.714-2.143.599-.3 19.975 1.441 25.715-1.429 1.136-.568 3.385.978 4.285 1.429 4.307 2.153 11.325-1.481 15.715.714 1.97.985 5.665-.438 7.857 0 9.85 1.97 15.921 1.02 25.714-1.429" fill="none" stroke="#000" stroke-width="3"/><path d="m123.041 237.474c5.719-27.571 17.013-8.506 22.858-11.428 2.703-1.352 11.835-4.627 15-3.572 3.999 1.333 4.587 6.083 10 5 3.168-.634 40.732-3.919 41.428-3.571 7.657 3.828 22.743 6.128 30.714 2.143" fill="none" stroke="#000" stroke-width="3"/><path d="m128.756 273.188c-3.535 8.973 2.012-3.149 5.714-5 4.033-2.016 3.695 5.715 6.429 5.715 4.441 0 6.55-6.133 10-7.857 2.383-1.192 5.875-1.245 8.571-2.143 9.522-3.174 6.034 6.231 10.714 8.571 1.952.976 6.41-1.428 8.572-1.428 1.552 0 2.565 2.002 4.285 1.428 10.619-3.54 23.909-4.811 32.858-9.286 1.146-.573 3.932 1.79 4.285 2.143 1.443 1.443 22.566-1.428 30-1.428" fill="none" stroke="#000" stroke-width="3"/></svg>

<?xml version="1.0" encoding="UTF-8"?>
<!DOCTYPE svg PUBLIC "-//W3C//DTD SVG 1.1//EN" "http://www.w3.org/Graphics/SVG/1.1/DTD/svg11.dtd">
<svg version="1.1" xmlns="http://www.w3.org/2000/svg" xmlns:xlink="http://www.w3.org/1999/xlink" x="0" y="0" width="224.351" height="252.44" viewBox="0, 0, 299.135, 336.587">
  <g id="Layer_1">
    <g id="path2987">
      <path d="M35.962,276.853 C47.149,296.008 41.436,291.264 64.953,295.356 C88.469,299.448 147.136,299.392 171.697,294.357 C196.257,289.322 201.432,286.257 209.622,272.584 C217.813,258.912 214.58,244.529 213.102,230.726 C211.624,216.923 206.854,204.25 205.846,190.29 C204.839,176.329 208.612,163.217 205.441,147.402 C202.269,131.588 200.364,111.525 197.878,95.309 C195.391,79.092 199.468,64.764 195.019,49.967 C190.569,35.17 191.434,20.221 167.411,13.229 C143.387,6.237 95.603,15.06 70.605,13.63 C45.607,12.2 29.98,10.007 17.164,18.861 C4.347,27.715 13.671,37.782 15.288,51.45 C16.904,65.119 17.557,72.004 18.606,90.811 C19.655,109.618 17.509,148.341 22.734,163.521 C32.997,191.812 16.871,240.584 35.962,276.853 z" fill="#FCF6D5"/>
      <path d="M35.962,276.853 C47.149,296.008 41.436,291.264 64.953,295.356 C88.469,299.448 147.136,299.392 171.697,294.357 C196.257,289.322 201.432,286.257 209.622,272.584 C217.813,258.912 214.58,244.529 213.102,230.726 C211.624,216.923 206.854,204.25 205.846,190.29 C204.839,176.329 208.612,163.217 205.441,147.402 C202.269,131.588 200.364,111.525 197.878,95.309 C195.391,79.092 199.468,64.764 195.019,49.967 C190.569,35.17 191.434,20.221 167.411,13.229 C143.387,6.237 95.603,15.06 70.605,13.63 C45.607,12.2 29.98,10.007 17.164,18.861 C4.347,27.715 13.671,37.782 15.288,51.45 C16.904,65.119 17.557,72.004 18.606,90.811 C19.655,109.618 17.509,148.341 22.734,163.521 C32.997,191.812 16.871,240.584 35.962,276.853 z" fill-opacity="0" stroke="#000000" stroke-width="3"/>
    </g>
    <path d="M38.756,66.76 C38.839,63.621 38.822,57.084 42.327,55.331 C45.371,53.81 44.577,70.772 50.184,68.903 C53.167,67.909 54.905,63.52 58.041,62.474 C59.822,61.88 82.536,61.353 83.756,61.76 C87.209,62.911 90.846,67.492 95.184,66.046 C101.908,63.804 114.216,62.728 119.47,57.474 C120.065,56.879 119.589,55.212 120.184,54.617 C121.203,53.598 128.163,56.821 129.47,57.474 C132.825,59.152 168.378,58.188 175.184,58.188" fill-opacity="0" stroke="#000000" stroke-width="3" id="path3768"/>
    <path d="M33.041,104.617 C33.994,104.379 35.66,102.95 35.899,103.903 C36.137,104.855 32.731,105.548 33.041,104.617 C33.524,103.171 35.535,102.838 36.613,101.76 C37.991,100.382 37.771,97.252 40.184,96.046 C47.576,92.35 39.497,101.072 44.47,106.046 C45.452,107.027 47.06,104.884 48.041,103.903 C53.437,98.507 56.731,107.058 58.756,106.046 C62.774,104.037 66.732,101.68 70.899,98.903 C71.86,98.262 73.957,96.358 74.47,95.331 C74.711,94.85 74.289,88.903 74.47,88.903 C75.184,88.903 74.244,90.368 74.47,91.046 C75.08,92.875 76.229,97.346 78.756,98.188 C82.153,99.321 88.608,93.829 91.613,95.331 C96.07,97.56 100.8,99.568 105.184,101.76 C107.232,102.784 111.172,99.039 113.756,100.331 C115.017,100.962 118.906,102.186 120.184,101.76 C122.514,100.983 131.135,96.521 133.041,97.474 C135.728,98.817 135.866,101.743 138.756,103.188 C142.316,104.969 150.909,101.04 153.756,99.617 C158.228,97.381 164.088,104.285 168.756,99.617" fill-opacity="0" stroke="#000000" stroke-width="3" id="path3770"/>
    <path d="M41.613,148.188 C44.439,145.627 44.825,143.188 48.756,143.188 C48.993,143.188 52.087,146.283 53.041,146.76 C53.493,146.986 57.017,144.415 58.041,143.903 C60.195,142.826 63.913,146.263 65.899,146.76 C69.037,147.544 73.657,145.356 76.613,144.617 C79.533,143.887 82.034,146.046 84.47,146.046 C89.181,146.046 98.861,140.636 102.327,138.903 C104.274,137.929 102.896,134.617 103.756,134.617 C108.525,134.617 113.298,141.174 117.327,143.188 C119.325,144.187 129.335,143.903 132.327,143.903 C141.829,143.903 151.454,143.903 160.899,143.903 C164.659,143.903 166.148,146.295 168.041,148.188 C168.569,148.716 177.656,149.067 173.041,146.76" fill-opacity="0" stroke="#000000" stroke-width="3" id="path3774"/>
    <path d="M45.184,192.474 C48.025,187.604 49.657,181.573 53.756,177.474 C55.519,175.711 57.149,179.915 60.184,178.903 C64.309,177.528 67.962,174.3 71.613,172.474 C73.622,171.469 82.197,178.145 84.47,178.903 C89.059,180.432 95.221,174.867 100.899,176.76 C105.734,178.372 109.318,183.47 113.041,185.331 C116.086,186.853 124.887,183.903 128.756,183.903 C138.297,183.903 147.756,179.998 157.327,183.188 C161.071,184.436 168.433,181.207 165.899,182.474" fill-opacity="0" stroke="#000000" stroke-width="3" id="path3776"/>
    <path d="M39.47,228.188 C40.027,224.311 40.305,222.057 43.756,220.331 C46.35,219.034 47.671,225.86 49.47,226.76 C51.184,227.617 55.602,223.188 57.327,223.188 C58.929,223.188 59.846,226.591 61.613,227.474 C61.904,227.62 88.777,222.957 91.613,223.903 C96.135,225.41 101.023,230.052 106.613,228.188 C121.959,223.073 131.584,214.131 148.041,219.617 C154.527,221.779 166.935,216.691 168.756,220.331" fill-opacity="0" stroke="#000000" stroke-width="3" id="path3778"/>
    <g id="path2994">
      <path d="M65.163,241.198 C66.182,254.805 72.774,266.858 75.114,280.162 C79.156,291.269 83.552,304.638 94.96,310.006 C116.894,314.385 138.961,307.212 160.879,306.734 C173.998,307.1 187.082,304.283 200.232,303.794 C212.766,301.532 228.012,303.34 238.006,294.18 C242.28,284.554 241.116,271.878 240.795,260.979 C239.202,243.368 238.818,225.154 231.72,208.674 C227.549,189.205 230.081,169.105 230.579,149.451 C228.569,137.591 230.509,125.408 226.252,113.609 C222.57,101.322 222.464,89.52 219.716,77.554 C212.931,58.945 203.961,38.369 185.447,28.851 C173.148,22.238 161.515,28.34 148.942,28.903 C135.018,28.78 121.31,32.847 107.486,30.662 C89.345,34.069 70.717,35.801 53.108,41.51 C48.355,50.523 54.416,62.499 55.761,72.356 C59.244,83.984 59.767,95.573 60.398,107.939 C61.413,119.733 61.644,131.382 61.043,143.247 C60.609,175.929 61.268,208.717 65.163,241.198 z" fill="#FCF6D5"/>
      <path d="M65.163,241.198 C66.182,254.805 72.774,266.858 75.114,280.162 C79.156,291.269 83.552,304.638 94.96,310.006 C116.894,314.385 138.961,307.212 160.879,306.734 C173.998,307.1 187.082,304.283 200.232,303.794 C212.766,301.532 228.012,303.34 238.006,294.18 C242.28,284.554 241.116,271.878 240.795,260.979 C239.202,243.368 238.818,225.154 231.72,208.674 C227.549,189.205 230.081,169.105 230.579,149.451 C228.569,137.591 230.509,125.408 226.252,113.609 C222.57,101.322 222.464,89.52 219.716,77.554 C212.931,58.945 203.961,38.369 185.447,28.851 C173.148,22.238 161.515,28.34 148.942,28.903 C135.018,28.78 121.31,32.847 107.486,30.662 C89.345,34.069 70.717,35.801 53.108,41.51 C48.355,50.523 54.416,62.499 55.761,72.356 C59.244,83.984 59.767,95.573 60.398,107.939 C61.413,119.733 61.644,131.382 61.043,143.247 C60.609,175.929 61.268,208.717 65.163,241.198 z" fill-opacity="0" stroke="#000000" stroke-width="3"/>
    </g>
    <path d="M76.613,68.903 C89.482,65.518 77.327,77.162 77.327,74.617 C77.327,73.864 79.133,73.229 79.47,73.903" fill-opacity="0" stroke="#000000" stroke-width="3" id="path3780"/>
    <path d="M90.184,74.617 C91.137,74.141 92.089,73.665 93.041,73.188 C93.28,72.95 93.455,72.625 93.756,72.474 C97.363,70.671 101.856,75.331 104.47,75.331 C107.204,75.331 111.775,71.127 114.47,72.474 C116.396,73.437 117.242,76.046 119.47,76.046 C130.091,76.046 141.317,73.105 151.613,71.046 C156.424,70.083 160.303,72.266 165.184,71.046" fill-opacity="0" stroke="#000000" stroke-width="3" id="path3782"/>
    <path d="M79.47,103.188 C81.364,109.685 81.509,103.851 84.47,105.331 C87.697,106.945 87.152,115.062 93.756,111.76" fill-opacity="0" stroke="#000000" stroke-width="3" id="path3784"/>
    <path d="M100.899,108.188 C103.796,109.419 106.514,104.617 108.756,104.617 C111.149,104.617 110.254,109.356 113.756,108.188 C132.142,102.06 163.993,102.474 180.184,102.474" fill-opacity="0" stroke="#000000" stroke-width="3" id="path3786"/>
    <path d="M83.041,139.617 C85.474,138.308 85.463,135.331 93.756,135.331" fill-opacity="0" stroke="#000000" stroke-width="3" id="path3788"/>
    <path d="M123.041,134.617 C127.465,135.021 129.059,136.349 130.899,138.188 C131.279,138.568 140.636,133.903 142.327,133.903 C153.136,133.903 181.777,135.963 190.184,131.76" fill-opacity="0" stroke="#000000" stroke-width="3" id="path3790"/>
    <path d="M87.327,171.76 C92.17,169.636 98.313,164.617 103.756,164.617 C107.563,164.617 109.428,169.985 113.756,168.903 C118.33,167.759 135.403,161.869 139.47,163.903 C147.706,168.021 165.525,167.599 174.47,164.617 C180.013,162.769 185.893,168.191 191.613,165.331" fill-opacity="0" stroke="#000000" stroke-width="3" id="path3792"/>
    <path d="M83.041,192.474 C82.66,189.713 92.327,190.947 92.327,192.474 C92.327,196.646 86.239,193.562 86.613,193.188 C87.346,192.455 90.899,193.453 90.899,194.617 C90.899,195.14 86.613,195.594 86.613,195.331 C86.613,190.379 91.378,204.382 86.613,199.617 C86.445,199.449 86.613,199.141 86.613,198.903" fill-opacity="0" stroke="#000000" stroke-width="3" id="path3794"/>
    <path d="M109.47,195.331 C113.607,194.418 117.443,192.773 120.899,191.046 C121.798,190.596 128.349,194.991 131.613,193.903 C140.917,190.801 145.835,191.739 154.47,194.617 C154.509,194.63 178.91,190.28 180.899,189.617 C188.374,187.125 200.04,192.546 205.899,189.617" fill-opacity="0" stroke="#000000" stroke-width="3" id="path3796"/>
    <path d="M80.899,230.331 C85.269,232.803 90.457,228.052 94.47,226.046 C97.351,224.605 100.282,229.771 103.756,228.903 C107.264,228.026 110.33,225.473 113.756,224.617 C117.421,223.701 119.309,228.407 123.041,227.474 C138.987,223.488 155.009,223.589 170.899,219.617 C173.395,218.993 177.882,220.992 180.184,221.76 C186.883,223.993 195.383,221.395 201.613,218.903" fill-opacity="0" stroke="#000000" stroke-width="3" id="path3798"/>
    <g id="path2997">
      <path d="M91.282,111.526 C86.132,139.062 82.565,167.784 89.392,195.357 C89.029,207.832 94,219.592 93.229,232.092 C94.69,243.247 93.348,254.428 96.204,265.291 C99.224,282.495 93.855,301.389 102.614,317.36 C112.5,327.526 128.337,325.988 141.442,326.023 C156.698,326.018 171.621,321.15 186.852,322.722 C215.779,315.204 247.652,325.086 275.053,310.916 C290.66,303.109 290.796,281.885 285.482,267.508 C279.401,252.905 275.211,237.476 275.905,221.514 C275.95,206.662 271.391,192.092 273.599,177.191 C275.886,158.779 271.029,140.647 269.921,122.336 C268.959,107.091 263.828,92.707 257.599,78.918 C255.885,64.736 249.661,49.261 233.368,47.52 C207.098,41.694 180.001,45.147 153.337,44.144 C134.457,44.445 115.427,43.685 96.683,46.258 C85.081,53.413 85.942,68.271 87.761,80.083 C88.797,90.575 89.652,101.106 91.282,111.526 z" fill="#FCF6D5"/>
      <path d="M91.282,111.526 C86.132,139.062 82.565,167.784 89.392,195.357 C89.029,207.832 94,219.592 93.229,232.092 C94.69,243.247 93.348,254.428 96.204,265.291 C99.224,282.495 93.855,301.389 102.614,317.36 C112.5,327.526 128.337,325.988 141.442,326.023 C156.698,326.018 171.621,321.15 186.852,322.722 C215.779,315.204 247.652,325.086 275.053,310.916 C290.66,303.109 290.796,281.885 285.482,267.508 C279.401,252.905 275.211,237.476 275.905,221.514 C275.95,206.662 271.391,192.092 273.599,177.191 C275.886,158.779 271.029,140.647 269.921,122.336 C268.959,107.091 263.828,92.707 257.599,78.918 C255.885,64.736 249.661,49.261 233.368,47.52 C207.098,41.694 180.001,45.147 153.337,44.144 C134.457,44.445 115.427,43.685 96.683,46.258 C85.081,53.413 85.942,68.271 87.761,80.083 C88.797,90.575 89.652,101.106 91.282,111.526 z" fill-opacity="0" stroke="#000000" stroke-width="3"/>
    </g>
    <path d="M116.613,78.188 C115.027,80.109 114.99,81.823 114.47,83.903 C112.091,93.419 116.27,84.772 120.184,85.331 C123.367,85.786 126.759,88.618 128.756,89.617" fill-opacity="0" stroke="#000000" stroke-width="3" id="path3800"/>
    <path d="M164.47,86.046 C166.528,86.539 173.361,82.793 175.184,84.617 C175.569,85.002 175.053,87.474 176.613,87.474 C179.25,87.474 193.032,82.465 195.899,85.331 C199.231,88.663 218.976,88.903 225.184,88.903" fill-opacity="0" stroke="#000000" stroke-width="3" id="path3802"/>
    <path d="M123.041,119.617 C131.55,111.431 131.171,119.617 140.184,119.617 C141.463,119.617 145.364,116.67 146.613,116.046 C149.958,114.373 169.453,112.291 173.041,113.188 C181.187,115.225 221.063,119.178 227.327,116.046" fill-opacity="0" stroke="#000000" stroke-width="3" id="path3804"/>
    <path d="M119.47,153.188 C130.953,139.878 136.163,150.243 140.184,148.903 C143.293,147.867 152.088,143.585 155.184,144.617 C157.897,145.521 159.989,148.085 163.041,147.474 C179.077,144.267 194.65,144.617 210.184,144.617 C213.956,144.617 215.119,145.98 216.613,147.474 C217.549,148.41 236.454,146.125 240.899,143.903" fill-opacity="0" stroke="#000000" stroke-width="3" id="path3806"/>
    <path d="M116.613,191.046 C128.699,175.518 131.022,187.909 136.613,186.046 C139.899,184.95 144.849,181.046 148.041,181.046 C150.034,181.046 149.821,186.046 152.327,186.046 C154.352,186.046 156.339,184.754 158.041,183.903 C158.64,183.603 178.016,185.344 183.756,182.474 C184.892,181.906 187.141,183.452 188.041,183.903 C192.348,186.056 199.366,182.422 203.756,184.617 C205.726,185.602 209.421,184.179 211.613,184.617 C221.463,186.587 227.534,185.637 237.327,183.188" fill-opacity="0" stroke="#000000" stroke-width="3" id="path3810"/>
    <path d="M123.041,237.474 C128.76,209.903 140.054,228.968 145.899,226.046 C148.602,224.694 157.734,221.419 160.899,222.474 C164.898,223.807 165.486,228.557 170.899,227.474 C174.067,226.84 211.631,223.555 212.327,223.903 C219.984,227.731 235.07,230.031 243.041,226.046" fill-opacity="0" stroke="#000000" stroke-width="3" id="path3812"/>
    <path d="M128.756,273.188 C125.221,282.161 130.768,270.039 134.47,268.188 C138.503,266.172 138.165,273.903 140.899,273.903 C145.34,273.903 147.449,267.77 150.899,266.046 C153.282,264.854 156.774,264.801 159.47,263.903 C168.992,260.729 165.504,270.134 170.184,272.474 C172.136,273.45 176.594,271.046 178.756,271.046 C180.308,271.046 181.321,273.048 183.041,272.474 C193.66,268.934 206.95,267.663 215.899,263.188 C217.045,262.615 219.831,264.978 220.184,265.331 C221.627,266.774 242.75,263.903 250.184,263.903" fill-opacity="0" stroke="#000000" stroke-width="3" id="path3814"/>
  </g>
</svg>
